X:0054
T:Cottillon
M:2/4
L:1/16
Q:1/4=112
I: :: ::
Z:Jack Campin * www.campin.me.uk * 2009
K:G
 g2`d2`B2`G2|(AG)(AB) G2`D2|(AG)(AB) c2`B2|(AB`cA)  B2G2|
 g2`d2`B2`G2| AG``AB  G2`D2|(AG``AB) c2`B2|(AG`AB)  G4 :|
.B2.c2.B2.A2|.B2`.c2`.B2.A2|.B2`.c2`.B2.A2|(GA)(Bc) d4  |
 g2`d2`B2`G2|(AG``AB) G2`D2|(AG``AB) c2`B2|(AB`cA)  B2G2|
 g2`d2`B2`G2|(AG``AB) G2`D2|(AG``AB) c2`B2|(AG`AB)  G4 :|

